X:1
T:Morrisey and the Russian Sailor (2)
M:6/8
L:1/8
K:A
 E| AAA CDE| C2 C- A,2 B,| C2 B, A,2 A,| A,3 z2 E| A2 B c2- c/2d/2|\
 B2 B c2- d/2B/2| A2 FE-G B| A3 z2 E| A2 B c2- c/2d/2| B2 B c2- c/2B/2|\
 A2 FE-G B| A3 z2 E| A2 F E2- E/2D/2| C2 C A,2 B,| C2 B, A,2 A,| A,3 z2||\
